!!!SOCIAL_FUNCTION:	bird dance songs
!!!PDT:	1956
!!!OTL: No_106_Hinata_Dance_Song_(b).krn
!!!LANG: Non-Tone
!!!LING_GROUP: Muskogean
!!!REG: Florida
**kern
*staff1
=1-
*clefF4
*k[f#c#g#d#]
*M2/4
4r
8.r
16G#\
=2
8A\L
16A\L
16A\JJ
4E\
=3
4E\
8E\
16r
16B\
=4
8A\L
16A\L
16A\JJ
4A\
=5
4B\
8.F#\L
16B\Jk
=6
16B\LL
16A\
16F#\
32F#\L
32F#\JJJ
4E\
=7
4BB/
8E\
16r
16F#\
=8||
*M3/4
(16E/LK
8.BB/J)
4BB/
8E\
16r
16F#\
=9||
*M2/4
8E/L
16C#/L
16C#/JJ
4BB/
=10
4BB/
4E\
=11||
*M3/4
16F#\LL
16E\
16E\
16C#\JJ
4BB/
8E\
16r
16F#\
=12
16E/LK
8.BB/J
4BB/
8E\
16r
16F#\
=13||
*M2/4
16E/LL
16BB/
16BB/
16BB/JJ
4BB/
==
*-
